img/logos/harrow.svg

<?xml version="1.0" encoding="UTF-8" standalone="no" ?>
<svg width="256px" height="244px" viewBox="0 0 256 244" version="1.1" xmlns="http://www.w3.org/2000/svg" xmlns:xlink="http://www.w3.org/1999/xlink" preserveAspectRatio="xMinYMin meet">
    <g fill="#2C1137">
        <path d="M92.7254367,0.154078559 C87.0303086,0.743832506 82.555515,3.19257449 77.2331112,8.63190035 C74.8767301,11.0398735 74.2854881,11.7156949 70.2524613,16.6114366 C64.5398097,23.5456189 61.9027025,26.1943721 58.3268631,28.589104 C56.1236371,30.0647956 51.7205146,32.2530702 47.9880151,33.7275421 C46.4908097,34.3190383 43.6597179,35.4349538 41.6795655,36.2139168 C28.2916338,41.4812821 23.245575,46.1578477 20.8334692,55.5334545 C20.0440367,58.601743 19.5992911,62.2934111 19.1627814,69.4018191 C18.4781395,80.5522628 17.7603781,84.3531703 15.3207604,89.7513789 C14.4775311,91.6169876 12.4824838,94.995572 9.4358532,99.7170879 C4.54575332,107.295906 2.80549741,110.502703 1.54152946,114.264932 C0.634339358,116.965431 0.322947273,118.50576 0.203612441,120.885509 C0.0338100003,124.268275 0.650811412,127.506085 2.16904495,131.19967 C3.59370314,134.665715 4.83716865,136.879426 8.901913,143.186396 C13.2584231,149.946352 14.9758985,152.967252 16.172401,155.974561 C17.7679131,159.984714 18.5480582,164.563888 19.0697318,172.978989 C19.3989978,178.292873 19.6061252,180.853989 19.8780896,182.979542 C21.352164,194.495859 25.4919088,200.181193 36.0194844,205.14767 C37.1085681,205.661461 40.6807277,207.144296 43.9576168,208.442975 C50.9144347,211.199748 53.4108285,212.292142 55.8034833,213.626886 C60.7240739,216.371811 63.7163819,219.201062 70.7648475,227.772966 C74.3321006,232.111185 77.2714876,235.381575 78.969512,236.901869 C85.3059992,242.574657 90.9029957,244.409777 98.9813159,243.463208 C101.989045,243.110923 104.571304,242.564553 111.335363,240.849997 C122.42772,238.038343 126.21314,237.559048 131.995535,238.234347 C135.163779,238.604401 137.72571,239.143108 144.805192,240.928225 C154.145203,243.283234 157.701066,243.853822 161.80296,243.655379 C165.18499,243.491782 167.377525,242.923631 170.406984,241.425813 C174.110395,239.594875 178.3332,235.839615 182.919267,230.299238 C184.217232,228.731207 186.269405,226.254937 187.467485,224.811129 C190.3154,221.378883 194.631605,217.110703 196.727237,215.654351 C199.980996,213.393423 203.684056,211.605171 210.956296,208.783237 C217.860544,206.103996 220.738248,204.819604 223.608243,203.136409 C231.215532,198.674663 234.617186,193.102055 235.912172,182.979542 C236.184136,180.853989 236.390737,178.292873 236.718777,172.978989 C237.573047,159.145469 238.658451,155.910271 246.509316,143.796186 C252.109817,135.154593 254.19546,130.919341 255.22584,126.094857 C255.616789,124.265487 255.66235,119.808794 255.308902,118.010785 C254.906738,115.966246 253.63874,112.365873 252.516712,110.083517 C251.357885,107.725894 249.243502,104.177265 246.2363,99.5428623 C238.499337,87.6190307 237.543257,84.6117211 236.626955,69.3147061 C236.196053,62.1191854 235.746399,58.5330981 234.850951,55.1501581 C232.877632,47.6946926 228.952901,43.2099492 220.874581,39.179238 C218.193314,37.8415332 216.668947,37.200557 209.203949,34.2726943 C206.943422,33.386234 203.773775,32.0107223 202.177037,31.2233964 C195.760292,28.0598063 192.881361,25.5317918 185.575126,16.6462817 C181.477788,11.6634273 179.939401,9.937025 177.468943,7.5503073 C172.603901,2.8500468 168.304167,0.686686479 162.731704,0.135610639 C158.984309,-0.234967392 154.58329,0.373602926 146.732774,2.34792838 C134.483869,5.42823847 133.392156,5.61779602 127.895043,5.61779602 C122.376201,5.61779602 121.306218,5.43189722 109.144929,2.36029841 C101.17175,0.346423718 96.6866174,-0.256222926 92.7254367,0.154078559 L92.7254367,0.154078559 L92.7254367,0.154078559 Z M110.686995,49.99935 C117.766476,53.8612364 118.689964,54.4150999 118.924954,54.9410872 C119.018003,55.1491126 119.045515,63.1645395 118.99312,74.8376604 C118.915316,92.207961 118.935818,94.4314292 119.177117,94.7952125 C119.327468,95.0218801 120.324903,95.6673862 121.411359,96.2412857 C122.489228,96.8106551 126.46688,99.0452738 130.234426,101.198007 L137.094865,105.118085 L137.208768,98.3581276 C137.271327,94.6471207 137.350358,91.5706434 137.384003,91.5371922 C137.417648,91.5037409 142.47457,88.5286631 148.607786,84.9340388 L159.770236,78.3918643 L174.595093,86.6675843 L174.638901,135.093613 C174.681834,182.500421 174.675877,183.530966 174.353269,184.059742 C173.817227,184.93871 171.107922,186.619292 160.751552,192.497318 C158.333313,193.869693 155.69165,195.432497 154.854904,195.98549 C153.926159,196.599287 153.013361,197.054713 152.497996,197.161513 C151.747291,197.317097 151.542967,197.284168 150.5967,196.856618 C150.018424,196.59528 149.178175,196.105358 148.747974,195.778858 C147.242707,194.635939 145.733936,193.684143 143.438362,192.429543 C137.340193,189.096607 137.303745,189.07204 137.067004,188.1192 C136.98587,187.793224 136.963088,178.867816 137.01601,168.274895 C137.104328,150.625832 137.088382,148.986717 136.823252,148.587393 C136.659582,148.340862 135.5528,147.633681 134.273587,146.958382 C133.032223,146.302946 129.077876,144.083833 125.503089,142.036507 C121.928301,139.989181 118.945806,138.308077 118.887979,138.308077 C118.830151,138.308077 118.782838,141.330893 118.782838,145.024477 C118.782838,149.467231 118.719404,151.858829 118.595687,152.089329 C118.35141,152.54371 116.399646,153.768864 114.75244,154.501483 C114.025741,154.824672 112.106396,155.884313 110.459189,156.871825 C108.82425,157.852018 105.780423,159.636263 103.712654,160.826746 C101.644883,162.017231 99.4826621,163.290647 98.9199838,163.649203 C98.3592327,164.00654 97.5694499,164.450118 97.1763983,164.628177 C95.738247,165.280303 95.5817625,165.223158 90.359768,162.142151 C87.7312474,160.591368 84.6679695,158.793707 83.5606613,158.152383 C82.4216358,157.492589 81.4496088,156.803352 81.3250169,156.56693 C80.9845358,155.920899 81.100366,60.0110546 81.4425995,59.348997 C81.6299254,58.9862591 83.735896,57.7436816 90.6401437,53.9218669 C95.564239,51.1961061 100.580508,48.4123282 101.785071,47.7368552 C102.994191,47.0587688 104.038414,46.5047312 104.115693,46.4998529 C104.192796,46.4949745 107.147253,48.0684066 110.686995,49.99935 L110.686995,49.99935 L110.686995,49.99935 Z"></path>
        <path d="M83.3854258,108.741978 L83.3854258,155.852603 L85.532051,156.958936 C86.7078759,157.564893 89.2557886,158.955562 91.165847,160.03402 C93.0759053,161.112477 94.7283686,162.002769 94.8194906,162.002769 C94.9267343,162.002769 94.9672136,155.251524 94.9333933,143.055726 C94.8841522,125.319551 94.9004491,124.072445 95.1874836,123.54245 C95.4415738,123.07326 95.5992851,122.976217 96.1074658,122.976217 C96.944562,122.976217 97.5969608,123.277279 99.804918,124.681886 C100.84371,125.342724 103.397229,126.856571 105.465,128.037472 C107.540655,129.222904 113.403132,132.591035 118.519986,135.537889 C123.636838,138.484742 130.128759,142.192265 132.976849,143.794095 C138.093703,146.672129 138.788508,147.123025 139.154574,147.803377 C139.373442,148.209845 139.345754,169.616432 139.113218,179.91317 C139.019468,184.059741 139.030507,186.475207 139.145111,186.890909 C139.24114,187.23936 139.57391,187.761514 139.881097,188.046025 C140.316905,188.449532 150.272515,194.104026 151.043548,194.385923 C151.137474,194.420245 151.201259,175.50526 151.201259,147.576883 C151.201259,110.292586 151.156399,100.674632 150.982215,100.535949 C150.861303,100.439776 148.485121,99.0574693 145.681366,97.4521538 C142.87761,95.8468384 140.340387,94.3863044 140.021284,94.1941335 L139.443009,93.8456822 L139.469295,112.461697 C139.48384,122.706167 139.443009,131.351943 139.378523,131.687501 C139.187868,132.680588 138.858427,132.990012 138.006085,132.976771 C137.09907,132.962658 136.271262,132.550092 133.677788,130.819509 C132.566624,130.078178 130.208141,128.654058 128.420747,127.645465 C126.633527,126.636872 123.33894,124.778058 121.078412,123.502552 C116.258406,120.783064 109.425304,116.81821 103.80027,113.477259 C101.592312,112.166036 99.0307312,110.717872 98.1051414,110.257741 C96.1600362,109.290789 95.3996927,108.656608 95.1804741,107.818582 C95.0897026,107.471002 95.0700763,99.0027624 95.1349132,88.1310797 C95.1974719,77.6426935 95.1880093,68.8885498 95.113885,68.6874933 C95.0099708,68.405422 88.2219038,64.3182617 83.5080901,61.6994754 C83.4406247,61.6620169 83.3854258,82.8346189 83.3854258,108.741978 L83.3854258,108.741978 L83.3854258,108.741978 Z"></path>
    </g>
</svg>

<svg width="256" height="244" viewBox="0 0 256 244" xmlns="http://www.w3.org/2000/svg" preserveAspectRatio="xMinYMin meet"><g fill="#2C1137"><path d="M92.725.154c-5.695.59-10.17 3.04-15.492 8.478-2.356 2.408-2.948 3.084-6.98 7.98-5.713 6.934-8.35 9.582-11.926 11.977-2.203 1.475-6.606 3.663-10.34 5.138-1.496.59-4.327 1.707-6.307 2.486-13.388 5.267-18.434 9.944-20.847 19.32-.79 3.068-1.234 6.76-1.67 13.868-.685 11.15-1.403 14.95-3.842 20.35-.842 1.865-2.838 5.244-5.884 9.965-4.89 7.58-6.63 10.786-7.894 14.548-.908 2.7-1.22 4.24-1.338 6.62-.17 3.383.447 6.62 1.965 10.315 1.424 3.466 2.667 5.68 6.732 11.986 4.356 6.76 6.074 9.78 7.27 12.79 1.596 4.01 2.376 8.588 2.898 17.003.33 5.313.536 7.874.808 10 1.474 11.516 5.614 17.2 16.14 22.168 1.09.513 4.663 1.996 7.94 3.295 6.956 2.757 9.453 3.85 11.845 5.184 4.92 2.745 7.913 5.574 14.962 14.146 3.567 4.338 6.506 7.61 8.205 9.13 6.336 5.672 11.933 7.507 20.01 6.56 3.01-.352 5.59-.898 12.355-2.613 11.093-2.812 14.878-3.29 20.66-2.616 3.17.37 5.73.91 12.81 2.694 9.34 2.355 12.896 2.926 16.998 2.727 3.382-.163 5.575-.73 8.604-2.23 3.703-1.83 7.926-5.585 12.512-11.126 1.297-1.57 3.35-4.045 4.547-5.49 2.848-3.43 7.165-7.7 9.26-9.156 3.254-2.26 6.957-4.05 14.23-6.87 6.904-2.68 9.78-3.964 12.65-5.648 7.61-4.46 11.01-10.034 12.305-20.156.272-2.126.48-4.687.807-10 .853-13.835 1.938-17.07 9.79-29.184 5.6-8.64 7.685-12.877 8.716-17.7.39-1.83.436-6.287.083-8.085-.403-2.044-1.67-5.644-2.793-7.926-1.16-2.358-3.273-5.907-6.28-10.54-7.738-11.925-8.694-14.932-9.61-30.23-.43-7.195-.88-10.78-1.776-14.164-1.972-7.455-5.897-11.94-13.975-15.97-2.682-1.338-4.206-1.98-11.67-4.907-2.262-.887-5.43-2.262-7.028-3.05-6.417-3.163-9.296-5.69-16.602-14.577-4.097-4.983-5.636-6.71-8.106-9.096-4.866-4.7-9.166-6.863-14.738-7.414-3.748-.37-8.15.238-16 2.212-12.248 3.08-13.34 3.27-18.837 3.27-5.52 0-6.59-.186-18.75-3.258C101.172.346 96.687-.256 92.725.154zM110.687 50c7.08 3.86 8.003 4.415 8.238 4.94.093.21.12 8.225.068 19.898-.078 17.37-.057 19.593.184 19.957.15.227 1.148.872 2.234 1.446 1.08.57 5.057 2.805 8.824 4.958l6.86 3.92.115-6.76c.06-3.71.14-6.787.174-6.82.034-.034 5.09-3.01 11.224-6.604l11.162-6.542 14.825 8.276.044 48.426c.042 47.406.036 48.437-.287 48.966-.536.88-3.245 2.56-13.6 8.437-2.42 1.373-5.06 2.935-5.898 3.488-.93.614-1.842 1.07-2.357 1.177-.75.155-.955.122-1.9-.305-.58-.262-1.42-.752-1.85-1.078-1.505-1.144-3.014-2.096-5.31-3.35-6.098-3.333-6.134-3.358-6.37-4.31-.082-.327-.105-9.252-.052-19.845.088-17.65.072-19.288-.193-19.688-.163-.246-1.27-.953-2.55-1.63-1.24-.654-5.195-2.873-8.77-4.92-3.575-2.048-6.557-3.73-6.615-3.73-.058 0-.105 3.024-.105 6.717 0 4.443-.064 6.835-.187 7.065-.245.454-2.196 1.68-3.844 2.41-.726.325-2.646 1.384-4.293 2.372-1.636.98-4.68 2.764-6.747 3.955-2.068 1.19-4.23 2.464-4.793 2.822-.56.357-1.35.8-1.744.978-1.438.652-1.594.595-6.816-2.486-2.63-1.55-5.692-3.348-6.8-3.99-1.138-.66-2.11-1.35-2.235-1.585-.34-.646-.225-96.556.118-97.218.187-.364 2.293-1.606 9.197-5.428 4.924-2.726 9.94-5.51 11.145-6.185 1.21-.678 2.253-1.232 2.33-1.237.078-.005 3.032 1.568 6.572 3.5z"/><path d="M83.385 108.742v47.11l2.147 1.107c1.176.605 3.724 1.996 5.634 3.074 1.91 1.078 3.562 1.97 3.653 1.97.107 0 .147-6.752.113-18.948-.05-17.736-.033-18.984.254-19.514.255-.47.412-.566.92-.566.838 0 1.49.3 3.698 1.706 1.04.66 3.592 2.175 5.66 3.355 2.076 1.186 7.938 4.554 13.055 7.5 5.117 2.948 11.61 6.655 14.457 8.257 5.117 2.878 5.812 3.33 6.178 4.01.218.406.19 21.812-.042 32.11-.094 4.146-.082 6.56.032 6.977.096.35.43.872.736 1.156.437.404 10.393 6.058 11.164 6.34.093.034.157-18.88.157-46.81 0-37.283-.044-46.9-.218-47.04-.12-.096-2.497-1.48-5.3-3.084-2.804-1.605-5.342-3.066-5.66-3.258l-.58-.348.027 18.616c.014 10.244-.027 18.89-.09 19.226-.192.993-.522 1.302-1.374 1.29-.907-.015-1.735-.428-4.328-2.158-1.11-.742-3.47-2.166-5.257-3.175l-7.342-4.142c-4.82-2.72-11.653-6.685-17.278-10.026-2.208-1.31-4.77-2.76-5.695-3.22-1.945-.966-2.705-1.6-2.925-2.438-.09-.35-.11-8.817-.045-19.69.062-10.487.053-19.24-.02-19.443-.105-.282-6.893-4.37-11.607-6.988-.067-.038-.123 21.135-.123 47.042z"/></g></svg>
